X: 1151
T: An Buachaillin Dreoite
R: jig
M: 6/8
K: Gmajor
|:G|A2G A2G|GFE D2G|A2G cAG|FGE D2G|
A2G AGG|Fde fgf|1 fed cAG|FGE D2:|2 fed cAF|G2A||
|:BAB cBc|ded G2A|BAB d2B|cAG FGE|
D2B cBc|ded dfg|a2g fed|1 cAF G2A:|2 cAF G2||

